icons-rebrand/svg/select-all-light.svg

<svg xmlns="http://www.w3.org/2000/svg" width="32" height="32" viewBox="0 0 32 32" fill="none"><path d="M19.3254 15.3796C19.5351 15.1999 19.5593 14.8843 19.3796 14.6746C19.1999 14.4649 18.8843 14.4407 18.6746 14.6204L12.0262 20.319L9.35355 17.6464C9.15829 17.4512 8.84171 17.4512 8.64645 17.6464C8.45118 17.8417 8.45118 18.1583 8.64645 18.3536L11.6464 21.3536C11.8312 21.5383 12.127 21.5497 12.3254 21.3796L19.3254 15.3796Z M12 4C9.79086 4 8 5.79086 8 8C5.79086 8 4 9.79086 4 12V24C4 26.2091 5.79086 28 8 28H20C22.2091 28 24 26.2091 24 24C26.2091 24 28 22.2091 28 20V8C28 5.79086 26.2091 4 24 4H12ZM12 5H24C25.6569 5 27 6.34315 27 8V20C27 21.6569 25.6569 23 24 23V12C24 9.79086 22.2091 8 20 8L9 8C9 6.34315 10.3431 5 12 5ZM20 9C21.6569 9 23 10.3431 23 12V24C23 25.6569 21.6569 27 20 27H8C6.34315 27 5 25.6569 5 24V12C5 10.3431 6.34315 9 8 9H20Z"/></svg>

<svg data-name="Layer 1" xmlns="http://www.w3.org/2000/svg" viewBox="0 0 32 32"><path d="M19.325 15.38a.5.5 0 1 0-.65-.76l-6.649 5.7-2.672-2.674a.5.5 0 0 0-.708.708l3 3a.5.5 0 0 0 .679.026Z" style="fill:#0f0f0f"/><path d="M24 4H12a4 4 0 0 0-4 4 4 4 0 0 0-4 4v12a4 4 0 0 0 4 4h12a4 4 0 0 0 4-4 4 4 0 0 0 4-4V8a4 4 0 0 0-4-4Zm-1 20a3 3 0 0 1-3 3H8a3 3 0 0 1-3-3V12a3 3 0 0 1 3-3h12a3 3 0 0 1 3 3Zm4-4a3 3 0 0 1-3 3V12a4 4 0 0 0-4-4H9a3 3 0 0 1 3-3h12a3 3 0 0 1 3 3Z" style="fill-rule:evenodd;fill:#0f0f0f"/></svg>
